brandFactory_export/1.Light/Emergencia Cruz Circulo salud_1Light.svg

<?xml version="1.0" encoding="UTF-8"?>
<svg width="24px" height="24px" viewBox="0 0 24 24" version="1.1" xmlns="http://www.w3.org/2000/svg" xmlns:xlink="http://www.w3.org/1999/xlink">
    <title>1.Light/Emergencia Cruz Circulo salud_1Light</title>
    <g id="Symbols" stroke="none" stroke-width="1" fill="none" fill-rule="evenodd">
        <g id="1.Light/Emergencia-Cruz-Circulo-salud_1Light" fill="#5CB615" fill-rule="nonzero">
            <path d="M12.3361345,22.6319328 C14.7529412,22.5882353 22.6386555,21.6773109 22.6386555,11.8420168 C22.6386555,7.58319328 21.1798319,4.50756303 18.3092437,2.70588235 C15.9630252,1.23361345 13.3142857,1.01848739 12.2823529,0.991596639 C12.0134454,0.98487395 11.7008403,0.981512605 11.3983193,0.981512605 L11.1932773,0.981512605 C10.1714286,0.991596639 7.5394958,1.16638655 5.22689076,2.62184874 C2.41008403,4.39327731 0.981512605,7.47226891 0.981512605,11.7714286 C0.981512605,16.0773109 2.42352941,19.1663866 5.26722689,20.9579832 C7.6,22.4268908 10.2521008,22.6218487 11.2840336,22.6352941 C11.4016807,22.6386555 11.5193277,22.6386555 11.6403361,22.6386555 C11.8857143,22.6386555 12.1243697,22.6352941 12.3361345,22.6319328 Z M12.3058824,0.0134453782 C14.6184874,0.0672268908 23.6235294,0.981512605 23.6235294,11.8453782 C23.6235294,22.7327731 14.605042,23.5764706 12.3529412,23.6201681 C12.1378151,23.6235294 11.892437,23.6268908 11.6403361,23.6268908 C11.5159664,23.6268908 11.3915966,23.6268908 11.2705882,23.6235294 C8.89747899,23.589916 0,22.7327731 0,11.7781513 C0,0.840336134 8.81680672,0.0235294118 11.1865546,0.00672268908 L11.3983193,0.00672268908 C11.707563,1.89084859e-16 12.0268908,0.00322514839 12.3058824,0.0134453782 Z M19.1966387,13.4655462 L19.1966387,10.1579832 C19.1966387,9.94957983 18.8941176,9.68739496 18.5579832,9.68739496 L14.4201681,9.68739496 C14.1478992,9.68739496 13.9294118,9.46890756 13.9294118,9.19663866 L13.9294118,5.07226891 C13.9294118,4.73277311 13.6638655,4.4302521 13.4554622,4.4302521 L10.1579832,4.4302521 C9.94621849,4.4302521 9.68403361,4.72605042 9.68403361,5.07226891 L9.68403361,9.20672269 C9.68403361,9.4789916 9.46218487,9.69747899 9.19327731,9.69747899 L5.05882353,9.69747899 C4.7092437,9.69747899 4.4302521,9.95630252 4.4302521,10.1680672 L4.4302521,13.4655462 C4.4302521,13.6840336 4.70588235,13.9361345 5.05882353,13.9361345 L9.19327731,13.9361345 C9.46554622,13.9361345 9.68403361,14.1579832 9.68403361,14.4268908 L9.68403361,18.5613445 C9.68403361,18.9109244 9.94285714,19.189916 10.1579832,19.189916 L13.4655462,19.189916 C13.6806723,19.189916 13.9394958,18.9109244 13.9394958,18.5613445 L13.9294118,14.4268908 C13.9294118,14.2957983 13.9798319,14.1714286 14.0739496,14.0773109 C14.1680672,13.9831933 14.292437,13.9327731 14.4201681,13.9327731 L18.5546218,13.9327731 C18.8941176,13.9361345 19.1966387,13.6739496 19.1966387,13.4655462 L19.1966387,13.4655462 Z M18.5579832,8.70252101 C19.4252101,8.70252101 20.1815126,9.38487395 20.1815126,10.1579832 L20.1815126,13.4655462 C20.1815126,14.2420168 19.4218487,14.9210084 18.5579832,14.9210084 L14.9142857,14.9210084 L14.9243697,18.5613445 C14.9243697,19.4352941 14.2554622,20.1747899 13.4655462,20.1747899 L10.1579832,20.1747899 C9.36806723,20.1747899 8.69915966,19.4352941 8.69915966,18.5613445 L8.69915966,14.9210084 L5.05546218,14.9210084 C4.18151261,14.9210084 3.44201681,14.2554622 3.44201681,13.4655462 L3.44201681,10.1680672 C3.44201681,9.38151261 4.18151261,8.71260504 5.05546218,8.71260504 L8.69915966,8.71260504 L8.69915966,5.07226891 C8.69915966,4.20840336 9.37815126,3.4487395 10.1579832,3.4487395 L13.4554622,3.4487395 C14.2319328,3.4487395 14.9142857,4.20840336 14.9142857,5.07226891 L14.9142857,8.70252101 L18.5579832,8.70252101 L18.5579832,8.70252101 Z" id="Emergencia-Cruz-Circulo-salud_1Light"></path>
        </g>
    </g>
</svg>

<svg width="24" height="24" viewBox="0 0 24 24" xmlns="http://www.w3.org/2000/svg"><path d="M12.336 22.632c2.417-.044 10.303-.955 10.303-10.79 0-4.259-1.46-7.334-4.33-9.136-2.346-1.472-4.995-1.688-6.027-1.714-.269-.007-.581-.01-.884-.01h-.205c-1.022.01-3.654.184-5.966 1.64C2.41 4.393.982 7.472.982 11.772c0 4.305 1.442 7.394 4.285 9.186 2.333 1.469 4.985 1.664 6.017 1.677.118.004.235.004.356.004.246 0 .484-.004.696-.007zM12.306.013c2.312.054 11.318.969 11.318 11.832 0 10.888-9.019 11.731-11.271 11.775-.215.004-.46.007-.713.007-.124 0-.248 0-.37-.003C8.898 23.59 0 22.733 0 11.778 0 .84 8.817.024 11.187.007h.211c.31-.007.629-.004.908.006zm6.89 13.453v-3.308c0-.208-.302-.47-.638-.47H14.42a.49.49 0 01-.49-.491V5.072c0-.34-.266-.642-.475-.642h-3.297c-.212 0-.474.296-.474.642v4.135c0 .272-.222.49-.49.49H5.058c-.35 0-.629.26-.629.471v3.298c0 .218.276.47.629.47h4.134c.273 0 .491.222.491.49v4.135c0 .35.259.629.474.629h3.308c.215 0 .473-.28.473-.629l-.01-4.134a.49.49 0 01.491-.494h4.135c.34.003.642-.26.642-.467zm-.638-4.763c.867 0 1.624.682 1.624 1.455v3.308c0 .776-.76 1.455-1.624 1.455h-3.644l.01 3.64c0 .874-.669 1.614-1.458 1.614h-3.308c-.79 0-1.459-.74-1.459-1.614v-3.64H5.055c-.873 0-1.613-.666-1.613-1.455v-3.298c0-.786.74-1.455 1.613-1.455H8.7v-3.64c0-.865.68-1.624 1.459-1.624h3.297c.777 0 1.46.76 1.46 1.623v3.63h3.643z" fill="#5CB615" fill-rule="nonzero"/></svg>
